X:79
T:Le trente et un du mois d'aot
A:Picardie
O:France
M:6/8
L:1/8
Q:1/4=95
K:G
DEF|G3BBB|G3BBB|B3ABG|A3DEF|G3BBB|G3BBB|B3ABG|A3ABc|d3GGF|
M:9/8
E3D2zGFE|
M:6/8
D3GFG|A3ABc|B3AGA|HG3||
W:
W:Le trente et un du mois d'aot (bis)
W:Nous vmes venir par devant nous (bis)
W:Une frgate d'Angleterre
W:Qui fendait la mer et les flots,
W:C'tait pour aller  Breslau.
W:
W:refrain
W:Buvons un coup, buvons-en deux, (bis)
W:A la sant des amoureux, (bis)
W:A la sant du roi de France
W:Et merd' pour celui d'Angleterre
W:Qui nous a dclar la guerre !
W:
W:Le capitaine, en la voyant (bis)
W:Fait appeler son lieutenant: (bis)
W:Voyons, dit-il, toi qui es si brave,
W:Voyon, lieut'nant te sens-tu fort 
W:D'aller accoster  son bord
W:
W:Le lieutenant fier z'et hardi (bis)
W:Lui rpondit : Capitaine oui (bis)
W:Faites monter tou l'quipage,
W:Braves marins et matelots,
W:Faites les monter tous en haut !
